src/actions/24/mail-reply-all.svg

<svg xmlns="http://www.w3.org/2000/svg" viewBox="0 0 24 24">
  <defs id="defs3051">
    <style type="text/css" id="current-color-scheme">
      .ColorScheme-Text {
        color:#2e3440;
      }
      </style>
  </defs>
 <path style="fill:currentColor;fill-opacity:1;stroke:none" 
     d="M 2 4 L 2 13 L 3 13 L 3 5.2226562 L 3 5 L 3.0488281 5 L 3.2714844 5.2226562 L 9.0234375 10.976562 L 7 13 L 8.4140625 13 L 9.7304688 11.683594 L 11.183594 13.134766 L 12 13.949219 L 12.001953 13.949219 L 12.816406 13.134766 L 14.269531 11.683594 L 20.537109 17.951172 L 21 18.414062 L 21 19 L 15 19 L 9 19 L 9 20 L 15 20 L 21 20 L 22 20 L 22 19.414062 L 22 19 L 22 13 L 22 5 L 22 4 L 21 4 L 20.537109 4 L 3.4628906 4 L 3 4 L 2.0488281 4 L 2 4 z M 4.4628906 5 L 19.537109 5 L 12 12.537109 L 4.4628906 5 z M 20.951172 5 L 21 5 L 21 5.2226562 L 21 13 L 21 17 L 14.976562 10.976562 L 20.728516 5.2226562 L 20.951172 5 z M 5 14 L 2 17 L 5 20 L 5 18 L 5 16 L 5 14 z M 6 16 L 6 18 L 7 18 L 7 16 L 6 16 z M 8 16 L 8 18 L 9 18 L 9 16 L 8 16 z "
     class="ColorScheme-Text"
     />
</svg>

<svg viewBox="0 0 24 24" xmlns="http://www.w3.org/2000/svg">
 <defs>
  <style type="text/css">.ColorScheme-Text {
        color:#2e3440;
      }</style>
 </defs>
 <path class="ColorScheme-Text" d="m2 4v9h1v-7.7773-0.22266h0.048828l0.22266 0.22266 5.752 5.7539-2.0234 2.0234h1.4141l1.3164-1.3164 1.4531 1.4512 0.81641 0.81445h0.001953l0.81445-0.81445 1.4531-1.4512 6.7305 6.7305v0.58594h-6-6v1h6 6 1v-0.58594-0.41406-6-8-1h-1-0.46289-17.074-0.46289-0.95117-0.048828zm2.4629 1h15.074l-7.5371 7.5371-7.5371-7.5371zm16.488 0h0.048828v0.22266 7.7773 4l-6.0234-6.0234 5.752-5.7539 0.22266-0.22266zm-15.951 9-3 3 3 3v-2-2-2zm1 2v2h1v-2h-1zm2 0v2h1v-2h-1z" fill="currentColor"/>
</svg>
